brandFactory_export/1.Light/Jarabe _1Light.svg

<?xml version="1.0" encoding="UTF-8"?>
<svg width="24px" height="24px" viewBox="0 0 24 24" version="1.1" xmlns="http://www.w3.org/2000/svg" xmlns:xlink="http://www.w3.org/1999/xlink">
    <title>1.Light/Jarabe _1Light</title>
    <g id="Symbols" stroke="none" stroke-width="1" fill="none" fill-rule="evenodd">
        <g id="1.Light/Jarabe-_1Light" fill="#5CB615" fill-rule="nonzero">
            <path d="M18.7563025,19.210084 L18.7663866,9.77142857 L4.99159664,9.77142857 L4.99159664,19.210084 C4.99159664,19.3378151 5.01176471,19.4453782 5.01512605,19.5663866 L18.7327731,19.5663866 C18.7394958,19.4453782 18.7563025,19.3344538 18.7563025,19.210084 Z M15.3310924,22.6453782 C17.0722689,22.6453782 18.1680672,21.9193277 18.5747899,20.5445378 L5.17983193,20.5445378 C5.33109244,21.0487395 5.56302521,21.4756303 5.90252101,21.8016807 C6.48739496,22.3596639 7.34117647,22.6453782 8.44369748,22.6453782 L15.3310924,22.6453782 Z M5.9092437,6.91092437 C5.43529412,7.36470588 5.14957983,7.99663866 5.04201681,8.78991597 L18.7193277,8.78991597 C18.5546218,7.51932773 17.9327731,6.68907563 16.8638655,6.3092437 C16.6218487,6.47731092 16.3260504,6.57478992 16.010084,6.57478992 L7.66386555,6.57478992 C7.36806723,6.57478992 7.09579832,6.48739496 6.86386555,6.3394958 C6.49747899,6.48067227 6.16806723,6.66218487 5.9092437,6.91092437 Z M7.14621849,1.49579832 L7.14621849,5.0789916 C7.14621849,5.36470588 7.37815126,5.59663866 7.66722689,5.59663866 L16.0134454,5.59663866 C16.2991597,5.59663866 16.5344538,5.36470588 16.5344538,5.0789916 L16.5344538,1.49579832 C16.5344538,1.21008403 16.302521,0.978151261 16.0134454,0.978151261 L7.66386555,0.978151261 C7.37815126,0.978151261 7.14621849,1.21008403 7.14621849,1.49579832 Z M17.4521008,5.49243697 C18.9378151,6.13445378 19.7546218,7.53613445 19.7546218,9.50588235 L19.7445378,19.2134454 C19.7445378,22.0168067 18.1344538,23.6268908 15.3310924,23.6268908 L8.44369748,23.6268908 C7.07563025,23.6268908 5.99327731,23.2504202 5.21680672,22.507563 C4.41344538,21.7344538 4.00336134,20.6252101 4.00336134,19.210084 L4.00336134,9.50588235 C4.00336134,8.0907563 4.41344538,6.98151261 5.22352941,6.20840336 C5.51260504,5.93277311 5.86218487,5.72436975 6.24201681,5.54957983 C6.19159664,5.39831933 6.15798319,5.24369748 6.15798319,5.0789916 L6.15798319,1.49579832 C6.15798319,0.668907563 6.83361345,0 7.66386555,0 L16.010084,0 C16.8403361,0 17.5159664,0.672268908 17.5159664,1.49579832 L17.5159664,5.0789916 C17.5159664,5.22352941 17.4890756,5.35798319 17.4521008,5.49243697 Z M8.66890756,4.9210084 C8.39663866,4.9210084 8.17478992,4.70252101 8.17478992,4.4302521 L8.17478992,2.14453782 C8.17478992,1.87226891 8.39663866,1.65378151 8.66890756,1.65378151 C8.94117647,1.65378151 9.16302521,1.87226891 9.16302521,2.14453782 L9.16302521,4.4302521 C9.16302521,4.69915966 8.94117647,4.9210084 8.66890756,4.9210084 Z M10.7831933,4.9210084 C10.5109244,4.9210084 10.2890756,4.70252101 10.2890756,4.4302521 L10.2890756,2.14453782 C10.2890756,1.87226891 10.5109244,1.65378151 10.7831933,1.65378151 C11.0554622,1.65378151 11.2773109,1.87226891 11.2773109,2.14453782 L11.2773109,4.4302521 C11.2739496,4.69915966 11.0554622,4.9210084 10.7831933,4.9210084 Z M12.8941176,4.9210084 C12.6218487,4.9210084 12.4,4.70252101 12.4,4.4302521 L12.4,2.14453782 C12.4,1.87226891 12.6218487,1.65378151 12.8941176,1.65378151 C13.1663866,1.65378151 13.3882353,1.87226891 13.3882353,2.14453782 L13.3882353,4.4302521 C13.3848739,4.69915966 13.1663866,4.9210084 12.8941176,4.9210084 Z M15.005042,4.9210084 C14.7327731,4.9210084 14.5109244,4.70252101 14.5109244,4.4302521 L14.5109244,2.14453782 C14.5109244,1.87226891 14.7327731,1.65378151 15.005042,1.65378151 C15.2773109,1.65378151 15.4991597,1.87226891 15.4991597,2.14453782 L15.4991597,4.4302521 C15.4991597,4.69915966 15.2773109,4.9210084 15.005042,4.9210084 Z M8.57478992,13.7411765 L8.57478992,15.2201681 C8.57478992,15.2201681 8.61512605,15.2470588 8.67563025,15.2470588 L10.9915966,15.2470588 L10.9915966,17.5294118 C10.9915966,17.589916 11.0218487,17.6268908 11.0319328,17.6369748 L12.5210084,17.6369748 C12.5210084,17.6168067 12.5512605,17.589916 12.5512605,17.5394958 L12.5411765,15.2369748 L14.8470588,15.2369748 C14.897479,15.2369748 14.9445378,15.1966387 14.9546218,15.1865546 L14.9445378,13.7176471 C14.9445378,13.697479 14.8941176,13.687395 14.8571429,13.687395 L12.5411765,13.687395 L12.5411765,11.405042 C12.5411765,11.3546218 12.5109244,11.307563 12.4907563,11.297479 L11.0117647,11.307563 C11.0117647,11.3176471 10.9815126,11.3647059 10.9815126,11.405042 L10.9815126,13.697479 L8.67226891,13.697479 C8.61512605,13.7008403 8.58487395,13.7310924 8.57478992,13.7411765 L8.57478992,13.7411765 Z M8.67226891,16.2285714 C8.08067227,16.2285714 7.58655462,15.7781513 7.58655462,15.2201681 L7.58655462,13.7210084 C7.58655462,13.1731092 8.08067227,12.7226891 8.67226891,12.7226891 L9.99327731,12.7226891 L9.99327731,11.4117647 C9.99327731,10.8235294 10.4571429,10.3361345 11.0084034,10.3361345 L12.5176471,10.3361345 C13.0588235,10.3361345 13.5260504,10.8268908 13.5260504,11.4117647 L13.5260504,12.7159664 L14.8571429,12.7159664 C15.4386555,12.7159664 15.9327731,13.1764706 15.9327731,13.7243697 L15.9327731,15.2235294 C15.9327731,15.7613445 15.4386555,16.2218487 14.8470588,16.2218487 L13.5260504,16.2218487 L13.5361345,17.5428571 C13.5361345,18.1310924 13.0823529,18.6184874 12.5210084,18.6184874 L11.0117647,18.6084034 C10.4605042,18.6084034 10.0067227,18.1277311 10.0067227,17.5294118 L10.0067227,16.2252101 L8.67226891,16.2252101 L8.67226891,16.2285714 Z" id="Jarabe-_1Light"></path>
        </g>
    </g>
</svg>

<svg width="24" height="24" viewBox="0 0 24 24" xmlns="http://www.w3.org/2000/svg"><path d="M18.756 19.21l.01-9.439H4.992v9.44c0 .127.02.234.023.355h13.718c.006-.12.023-.232.023-.356zm-3.425 3.435c1.741 0 2.837-.726 3.244-2.1H5.18c.151.504.383.93.723 1.257.584.558 1.438.843 2.54.843h6.888zM5.91 6.911c-.474.454-.76 1.086-.867 1.879h13.677c-.164-1.27-.786-2.1-1.855-2.48a1.494 1.494 0 01-.854.265H7.664c-.296 0-.568-.088-.8-.236-.367.142-.696.323-.955.572zm1.237-5.415v3.583c0 .286.232.518.521.518h8.346a.52.52 0 00.521-.518V1.496a.519.519 0 00-.52-.518h-8.35a.518.518 0 00-.518.518zm10.306 3.996c1.486.642 2.303 2.044 2.303 4.014l-.01 9.707c0 2.804-1.61 4.414-4.414 4.414H8.444c-1.368 0-2.45-.377-3.227-1.12-.804-.773-1.214-1.882-1.214-3.297V9.506c0-1.415.41-2.524 1.22-3.298.29-.275.64-.484 1.019-.658a1.475 1.475 0 01-.084-.471V1.496C6.158.669 6.834 0 7.664 0h8.346c.83 0 1.506.672 1.506 1.496v3.583c0 .145-.027.279-.064.413zM8.67 4.921a.492.492 0 01-.494-.49V2.144c0-.273.222-.491.494-.491s.494.218.494.49V4.43c0 .27-.222.491-.494.491zm2.114 0a.492.492 0 01-.494-.49V2.144c0-.273.222-.491.494-.491s.494.218.494.49V4.43a.496.496 0 01-.494.491zm2.111 0a.492.492 0 01-.494-.49V2.144c0-.273.222-.491.494-.491s.494.218.494.49V4.43a.496.496 0 01-.494.491zm2.111 0a.492.492 0 01-.494-.49V2.144c0-.273.222-.491.494-.491s.494.218.494.49V4.43c0 .27-.222.491-.494.491zm-6.43 8.82v1.48s.04.026.1.026h2.317v2.282c0 .06.03.098.04.108h1.489c0-.02.03-.047.03-.098l-.01-2.302h2.306c.05 0 .098-.04.108-.05l-.01-1.47c0-.02-.05-.03-.088-.03h-2.316v-2.282c0-.05-.03-.097-.05-.108l-1.48.01c0 .01-.03.058-.03.098v2.292H8.673a.143.143 0 00-.097.044zm.097 2.488c-.591 0-1.085-.45-1.085-1.009v-1.499c0-.548.494-.998 1.085-.998h1.321v-1.311c0-.588.464-1.076 1.015-1.076h1.51c.54 0 1.008.49 1.008 1.076v1.304h1.331c.582 0 1.076.46 1.076 1.008v1.5c0 .537-.494.998-1.086.998h-1.32l.01 1.32c0 .59-.455 1.076-1.016 1.076l-1.51-.01c-.55 0-1.004-.48-1.004-1.079v-1.304H8.672v.004z" fill="#5CB615" fill-rule="nonzero"/></svg>
